X:1
T:Surrexit Christus
T:Surrexit Christus
T:André Vierendeels
C:André Vierendeels
%%score [ 1 2 3 4 ]
L:1/8
Q:1/4=120
M:3/2
K:D
V:1 treble nm="Soprano" snm="S"
V:2 treble nm="Alto" snm="A"
V:3 treble-8 nm="Tenor" snm="T"
V:4 bass nm="Bass" snm="B"
V:1
 z8 d4 | d8 d4 | c6 d2 e4 | d4 c4 B4 | !fermata!A8 A4 | B6 c2 d4 | c8 B4 | A8 G4 | !fermata!F8 E4 | %9
w: Sur-|re- xit|Chri- * stus|ho- * di-|e, Al-|le- * lu-|ia. Al-|le- lu-|ia, hu-|
 F8 G4 | A8 G4 | F8 E4 | !fermata!D8 E4 | F8 G4 | F4 E8 | D12 | F8 G4 | =F8 A4 | A4 G4 B4 | %19
w: ma- no|pro so-|la- mi-|ne, Al-|le- *|* lu-|ia,|Al- le-|lu- ia,|Al- le- *|
 c2 A2 B2 c2 B2 A2 | !fermata!F12 |] %21
w: lu- * * * * *|ia.|
V:2
 z8 A4 | B8 F4 | E2 F2 G2 B2 A4 | B4 A4 G4 | !fermata!F8 F4 | D8 G4 | E8 D4 | E8 E4 | %8
w: Sur-|re- xit|Chri- * * * stus|ho- * di-|e, Al-|le- lu|ia, Al-|le- lu-|
 !fermata!D8 E4 | D8 D4 | F8 D4 | D8 D2 C2 | !fermata!A,8 C4 | D12 | D8 C4 | D12 | D8 D4 | %17
w: ia, hu-|ma- no|pro so-|la- mi- *|ne, Al-|le-|lu- *|ia,|Al- le-|
 D4 =C2 A,2 ^C4 | F4 D8 | E8 D4 | !fermata!D12 |] %21
w: lu- * * ia,|Al- le-|lu- *|ia.|
V:3
 z8 F4 | G8 A4 | A6 G2 E4 | B4 e4 d4 | !fermata!A8 d4 | G6 A2 B4 | A8 B4 | =c8 c4 | %8
w: Sur-|re- xit|Chri- * stus|ho- * di-|e, Al-|le- * lu-|ia, Al-|le- lu-|
 !fermata!A8 A4 | B4 A4 B4 | A8 B4 | B4 A4 G2 A2 | !fermata!F8 A4 | A4 D4 G4 | A6 G2 A2 G2 | A12 | %16
w: ia, hu-|ma- * no|pro so-|la- * mi- *|ne, Al-|le- * *|* * lu- *|ia,|
 A8 _B4 | _B2 A2 F2 D2 E2 A2 | c4 B2 c2 d2 B2 | c4 B2 A2 G2 F2 | !fermata!A12 |] %21
w: Al- le-|lu- * * * ia, _|Al- le- * * *|lu- * * * *|ia.|
V:4
 z8 D,4 | G,,8 D,4 | A,,6 D,2 C,2 A,,2 | G,,4 A,,4 B,,4 | !fermata!D,8 D,4 | G,,8 G,,2 B,,2 | %6
w: Sur-|re- xit|Chri- * stus _|ho- * di-|e, Al-|le- lu- *|
 A,,2 C,2 B,,2 A,,2 G,,4 | A,,8 =C,4 | !fermata!D,8 C,4 | B,,4 D,4 G,,4 | D,8 G,,4 | %11
w: ia _ _ _ Al-|le- lu-|ia, hu-|ma- * no|pro so-|
 B,,4 D,4 B,,2 A,,2 | !fermata!D,8 A,,4 | D,4 B,,8 | D,2 C,2 A,,2 G,,2 A,,4 | D,12 | D,8 G,,4 | %17
w: la- * mi- *|ne, Al|le- *|* * * * lu-|ia,|Al- le-|
 _B,,4 A,,2 F,,2 A,,2 E,2 | F,4 G,4 G,,4 | A,,8 B,,4 | !wedge!!fermata!D,12 |] %21
w: lu- * * ia, _|Al- * le-|lu- *|ia.|

